X: 04099
T: WOODSFELLOW'S HORNPIPE
C: Bob McQuillen 28 Jan 79
B: Bob's Note Book 04 #99
P: (Try this as a schottische)
R: hornpipe, shottish
Z: 2019 John Chambers <jc:trillian.mit.edu>
M: C
L: 1/8
K: G
dc \
| B2G2 DEDC | B,CDE D2GA | BcAB GDGA | BdBG A2dc |
| B2G2 DEDC | B,CDE D2GA | BcAG FDFG | A2G2 G2 :|
|: Bc \
| d2g2 d2g2 | efge d2B2 | G2FG A2GA | BdBG A2Bc |
| d2g2 e2g2 | dBGB A2d2 | gedB cedc | B2G2 G2 :|
%%begintext align
%% With very Best Wishes to
%% David Woodsfellow, former
%% Applejack member. (He carried
%% my accordion down Mt.
%% Monadnock once. I was
%% grateful for that!)
%%endtext

%%sep 1 1 500

%%sep 1 1 500

